X: 305695
M: 2/4
L: 1/16
K: G
d2 |\
!//!g4 !//!g4 | !//!b4 !//!b4 | !//!a4 !//!g4 | !//!f4 f2d2 |\
!//!g4 !//!g4 | !//!b4 !//!b4 | !//!a4 !//!f4 | g2b2"^D.C."g2 |]\
d2B2 g2d2 | bagf edcB | c2A2 f2d2 | c'bag fedc |\
d2B2 g2d2 | bagf edcB | c2a2 g2f2 | f4 "^D.C."g2 |]


